src/categories-icons-sprite/categories/svg-cat-child-toys.svg

<svg width="31" height="30" viewBox="0 0 31 30" fill="none" xmlns="http://www.w3.org/2000/svg">
<path class="p-04303E" d="M18.1713 3.54017V0H15.4173L14.2119 4.74557L18.1713 3.54017Z" fill="#4D98CB"/>
<path class="p-58ADE5" d="M15.4171 4.74557V0H12.6631V1.77009V3.54017L15.4171 4.74557Z" fill="#58ADE5"/>
<path class="p-3440DB" d="M21.3814 6.00442C21.3814 4.64571 20.276 3.54028 18.9173 3.54028H15.4173L14.2119 9.37284L20.0965 8.16745C20.8614 7.74873 21.3814 6.93623 21.3814 6.00442Z" fill="#65B3E7"/>
<path class="p-2682FF" d="M11.9163 3.54028C10.5575 3.54028 9.45215 4.64571 9.45215 6.00442C9.45215 6.93623 9.9721 7.74879 10.737 8.16745L15.4162 9.37284V3.54028H11.9163Z" fill="#5FBEFF"/>
<path class="p-00CC76" d="M23.302 10.6316C23.302 9.27284 22.1967 8.16748 20.8379 8.16748H15.4173L14.2119 14.0001L22.0171 12.7947C22.7821 12.3759 23.302 11.5634 23.302 10.6316Z" fill="#A1D1FD"/>
<path class="p-CCFC5C" d="M9.99637 8.16748C8.63759 8.16748 7.53223 9.2729 7.53223 10.6316C7.53223 11.5634 8.05218 12.376 8.81711 12.7947L15.417 14.0001V8.16748H9.99637Z" fill="#B9DFFC"/>
<path class="p-FF3C7D" d="M25.2227 15.2586C25.2227 13.8998 24.1172 12.7944 22.7585 12.7944H15.4173L14.2119 18.627L23.9378 17.4217C24.7027 17.0029 25.2227 16.1904 25.2227 15.2586Z" fill="#65B3E7"/>
<path class="p-FFA2C1" d="M8.07553 12.7944C6.71675 12.7944 5.61133 13.8999 5.61133 15.2586C5.61133 16.1904 6.13134 17.0029 6.89627 17.4216L15.4167 18.627V12.7944H8.07553Z" fill="#5FBEFF"/>
<path class="p-FF9100" d="M24.6791 17.4219H15.4173L14.2119 23.2544L25.8584 22.049C26.6233 21.6303 27.1433 20.8178 27.1433 19.886C27.1433 18.5272 26.0378 17.4219 24.6791 17.4219Z" fill="#A1D1FD"/>
<path class="p-FFDE55" d="M6.15463 17.4219C4.79585 17.4219 3.69043 18.5272 3.69043 19.886C3.69043 20.8178 4.21044 21.6304 4.97537 22.049L15.4164 23.2544V17.4219H6.15463Z" fill="#B9DFFC"/>
<path class="p-EFE2DD" d="M26.5998 22.0488H15.4173L14.2119 28.1826L26.5998 26.9772C27.9585 26.9772 29.0639 25.8717 29.0639 24.513C29.0639 23.1543 27.9585 22.0488 26.5998 22.0488Z" fill="#65B3E7"/>
<path class="p-FFF5F5" d="M4.23373 22.0488C2.87495 22.0488 1.76953 23.1543 1.76953 24.513C1.76953 25.8717 2.87495 26.9771 4.23373 26.9771L15.4161 28.1826V22.0488H4.23373Z" fill="#5FBEFF"/>
<path class="p-04303E" d="M30.834 30V26.9773H15.4173L14.2119 28.9053L15.4173 30H30.834Z" fill="#4D98CB"/>
<path class="p-09607D" d="M15.4167 26.9773H0V30H15.4167V26.9773Z" fill="#58ADE5"/>
</svg>

<svg width="31" height="30" fill="none" xmlns="http://www.w3.org/2000/svg"><path class="p-04303E" d="M18.171 3.54V0h-2.754l-1.205 4.746 3.96-1.206z" fill="#4D98CB"/><path class="p-58ADE5" d="M15.417 4.746V0h-2.754v3.54l2.754 1.206z" fill="#58ADE5"/><path class="p-3440DB" d="M21.381 6.004a2.467 2.467 0 00-2.464-2.464h-3.5l-1.205 5.833 5.884-1.206a2.466 2.466 0 001.285-2.163z" fill="#65B3E7"/><path class="p-2682FF" d="M11.916 3.54a2.467 2.467 0 00-2.464 2.464c0 .932.52 1.745 1.285 2.163l4.68 1.206V3.54h-3.5z" fill="#5FBEFF"/><path class="p-00CC76" d="M23.302 10.632a2.467 2.467 0 00-2.464-2.465h-5.42L14.211 14l7.805-1.205a2.466 2.466 0 001.285-2.163z" fill="#A1D1FD"/><path class="p-CCFC5C" d="M9.996 8.167a2.467 2.467 0 00-2.464 2.465c0 .931.52 1.744 1.285 2.163l6.6 1.205V8.167h-5.42z" fill="#B9DFFC"/><path class="p-FF3C7D" d="M25.223 15.259a2.467 2.467 0 00-2.464-2.465h-7.342l-1.205 5.833 9.726-1.205a2.466 2.466 0 001.285-2.163z" fill="#65B3E7"/><path class="p-FFA2C1" d="M8.076 12.794A2.467 2.467 0 005.61 15.26c0 .931.52 1.744 1.285 2.163l8.52 1.205v-5.833h-7.34z" fill="#5FBEFF"/><path class="p-FF9100" d="M24.68 17.422h-9.263l-1.205 5.832 11.646-1.205a2.466 2.466 0 001.285-2.163 2.467 2.467 0 00-2.464-2.464z" fill="#A1D1FD"/><path class="p-FFDE55" d="M6.155 17.422a2.467 2.467 0 00-2.465 2.464c0 .932.52 1.744 1.285 2.163l10.441 1.205v-5.832H6.155z" fill="#B9DFFC"/><path class="p-EFE2DD" d="M26.6 22.049H15.417l-1.205 6.134L26.6 26.977a2.467 2.467 0 002.464-2.464 2.467 2.467 0 00-2.464-2.464z" fill="#65B3E7"/><path class="p-FFF5F5" d="M4.234 22.049a2.467 2.467 0 00-2.464 2.464 2.467 2.467 0 002.464 2.464l11.182 1.206v-6.134H4.234z" fill="#5FBEFF"/><path class="p-04303E" d="M30.834 30v-3.023H15.417l-1.205 1.928L15.417 30h15.417z" fill="#4D98CB"/><path class="p-09607D" d="M15.417 26.977H0V30h15.417v-3.023z" fill="#58ADE5"/></svg>
